assets/Crutch/Flat/crutch_flat.svg

<svg width="32" height="32" viewBox="0 0 32 32" fill="none" xmlns="http://www.w3.org/2000/svg">
<path d="M11.8553 19.9196C12.1482 20.2125 12.1482 20.6874 11.8553 20.9803L4.85534 27.9803C4.56245 28.2732 4.08758 28.2732 3.79468 27.9803C3.50179 27.6874 3.50179 27.2125 3.79468 26.9196L10.7947 19.9196C11.0876 19.6267 11.5624 19.6267 11.8553 19.9196Z" fill="#9B9B9B"/>
<path d="M22.525 13.7501L18.025 9.2501L19.425 7.8501L23.925 12.3501L22.525 13.7501Z" fill="#7167A4"/>
<path d="M10.325 23.4499C10.125 23.4499 9.92502 23.3499 9.72502 23.2499L8.62502 22.1499C8.32502 21.8499 8.32502 21.3499 8.62502 20.9499L10.625 18.8499C11.225 18.3499 12.725 16.5499 12.725 15.3499C12.725 13.1499 14.725 11.4499 14.825 11.3499L22.025 4.1499L23.225 5.3499L15.925 12.6499C15.825 12.7499 14.425 14.0499 14.425 15.4499C14.425 16.6499 13.625 17.9499 12.925 18.8499C13.825 18.1499 15.125 17.3499 16.425 17.3499C17.825 17.3499 19.225 15.8499 19.225 15.8499L26.525 8.5499L27.725 9.7499L20.325 16.9499C20.325 16.9499 18.525 18.9499 16.325 18.9499C15.125 18.9499 13.425 20.4499 12.825 20.9499L10.925 23.1499C10.725 23.3499 10.525 23.4499 10.325 23.4499Z" fill="#BEBEBE"/>
<path d="M3.225 29.65L2.225 28.65C1.925 28.35 1.925 27.85 2.225 27.55L3.925 25.85C4.225 25.55 4.725 25.55 5.025 25.85L6.025 26.85C6.325 27.15 6.325 27.65 6.025 27.95L4.325 29.65C4.025 29.95 3.525 29.95 3.225 29.65Z" fill="#7167A4"/>
<path d="M27.025 9.95L21.825 4.75C21.225 4.15 21.225 3.05 21.825 2.45C22.425 1.85 23.525 1.85 24.125 2.45L29.325 7.65C29.925 8.25 29.925 9.35 29.325 9.95C28.725 10.55 27.625 10.55 27.025 9.95Z" fill="#7167A4"/>
</svg>

<svg xmlns="http://www.w3.org/2000/svg" width="32" height="32" fill="none"><path fill="#9B9B9B" d="M11.855 19.92a.75.75 0 0 1 0 1.06l-7 7a.75.75 0 1 1-1.06-1.06l7-7a.75.75 0 0 1 1.06 0Z"/><path fill="#7167A4" d="m22.525 13.75-4.5-4.5 1.4-1.4 4.5 4.5-1.4 1.4Z"/><path fill="#BEBEBE" d="M10.325 23.45c-.2 0-.4-.1-.6-.2l-1.1-1.1c-.3-.3-.3-.8 0-1.2l2-2.1c.6-.5 2.1-2.3 2.1-3.5 0-2.2 2-3.9 2.1-4l7.2-7.2 1.2 1.2-7.3 7.3c-.1.1-1.5 1.4-1.5 2.8 0 1.2-.8 2.5-1.5 3.4.9-.7 2.2-1.5 3.5-1.5 1.4 0 2.8-1.5 2.8-1.5l7.3-7.3 1.2 1.2-7.4 7.2s-1.8 2-4 2c-1.2 0-2.9 1.5-3.5 2l-1.9 2.2c-.2.2-.4.3-.6.3Z"/><path fill="#7167A4" d="m3.225 29.65-1-1c-.3-.3-.3-.8 0-1.1l1.7-1.7c.3-.3.8-.3 1.1 0l1 1c.3.3.3.8 0 1.1l-1.7 1.7c-.3.3-.8.3-1.1 0ZM27.025 9.95l-5.2-5.2c-.6-.6-.6-1.7 0-2.3.6-.6 1.7-.6 2.3 0l5.2 5.2c.6.6.6 1.7 0 2.3-.6.6-1.7.6-2.3 0Z"/></svg>
